packages/ui-icons/svg/Line/closed-captioning.svg

<svg viewBox="0 0 1920 1920" version="1.1" xmlns="http://www.w3.org/2000/svg">
    <path d="M1800,1745 L1800,185 C1800,152 1773,125 1740,125 L180,125 C147,125 120,152 120,185 L120,1745 C120,1778 147,1805 180,1805 L1740,1805 C1773,1805 1800,1778 1800,1745 Z M1740,5 C1839.24,5 1920,85.76 1920,185 L1920,1745 C1920,1844.24 1839.24,1925 1740,1925 L180,1925 C80.76,1925 0,1844.24 0,1745 L0,185 C0,85.76 80.76,5 180,5 L1740,5 Z M859.522039,853.668863 L699.522039,853.668863 L699.522039,800.335529 L486.188706,800.335529 L486.188706,1120.33553 L699.522039,1120.33553 L699.522039,1067.0022 L859.522039,1067.0022 L859.522039,1173.66886 C859.522039,1232.33553 811.522039,1280.33553 752.855373,1280.33553 L432.855373,1280.33553 C374.188706,1280.33553 326.188706,1232.33553 326.188706,1173.66886 L326.188706,747.002196 C326.188706,688.335529 374.188706,640.335529 432.855373,640.335529 L752.855373,640.335529 C811.522039,640.335529 859.522039,688.335529 859.522039,747.002196 L859.522039,853.668863 Z M1584.52204,853.668863 L1424.52204,853.668863 L1424.52204,800.335529 L1211.18871,800.335529 L1211.18871,1120.33553 L1424.52204,1120.33553 L1424.52204,1067.0022 L1584.52204,1067.0022 L1584.52204,1173.66886 C1584.52204,1232.33553 1536.52204,1280.33553 1477.85537,1280.33553 L1157.85537,1280.33553 C1099.18871,1280.33553 1051.18871,1232.33553 1051.18871,1173.66886 L1051.18871,747.002196 C1051.18871,688.335529 1099.18871,640.335529 1157.85537,640.335529 L1477.85537,640.335529 C1536.52204,640.335529 1584.52204,688.335529 1584.52204,747.002196 L1584.52204,853.668863 Z" stroke="none" stroke-width="1" fill-rule="evenodd"/>
</svg>

<svg viewBox="0 0 1920 1920" xmlns="http://www.w3.org/2000/svg">
    <path d="M1800 1745V185c0-33-27-60-60-60H180c-33 0-60 27-60 60v1560c0 33 27 60 60 60h1560c33 0 60-27 60-60ZM1740 5c99.24 0 180 80.76 180 180v1560c0 99.24-80.76 180-180 180H180c-99.24 0-180-80.76-180-180V185C0 85.76 80.76 5 180 5h1560ZM859.522 853.669h-160v-53.333H486.189v320h213.333v-53.334h160v106.667c0 58.667-48 106.667-106.667 106.667h-320c-58.666 0-106.666-48-106.666-106.667V747.002c0-58.666 48-106.666 106.666-106.666h320c58.667 0 106.667 48 106.667 106.666V853.67Zm725 0h-160v-53.333h-213.333v320h213.333v-53.334h160v106.667c0 58.667-48 106.667-106.667 106.667h-320c-58.666 0-106.666-48-106.666-106.667V747.002c0-58.666 48-106.666 106.666-106.666h320c58.667 0 106.667 48 106.667 106.666V853.67Z" fill-rule="evenodd"/>
</svg>
